X:116
T: ES STEHT EIN SCHLOSS IN OESTERREICH
N: E0061F
O: Europa, Mitteleuropa, Deutschland, Pommern, Fiddichow, Brusenfelde
R: erzaehlendes Volks - Lied, Sage, Mord
M: 3/4
L: 1/16
K: D
A,2 | D2F2A4G2C2 | E3GG4F2
A,2 | D2F2A4D2F2 | F4E4z2
A2 | F2A2d4c2B2 | B2A2F4z2
d2 | A2F2G4C2E2 | E4D4z2

@@@ Tune index: 3766
